!!!OTL: De Gospel Train
!!!ARE: United States of America
!!!AGN: Negro Spiritual
!!!AMD: Pentatonic
**kern
*>[A,B,A]
*>A
*clefG2
*k[f#]
*M2/4
*MM132
{16b/LK
8.g/J
=1
4.e/
16g/LL
16g/JJ
=2
8g/L
8g/J}
{16g/LK
8.g/J
=3
4.d/
16g/LL
16g/JJ
=4
8g/L
8g/J}
{16b/LK
8.g/J
=5
4.e/
16g/LL
16g/JJ
=6
8g/
4g/}
{8a/
=7
8b/L
8b/J
16a/LL
16a/J
8a/J
=8
4g/}
!! Fine
==||
*>B
8r
{8d/
=9
8e/L
8g/J
8g/L
8e/J
=10
8g/L
[8g/J
8g/L]}
{8d/J
=11
8e/L
8g/J
8.g/L
16g/Jk
=12
(8e/
4d/)}
{8d/
=13
8e/L
8g/J
8g/L
8e/J
=14
8g/L
[8g/J
8g/L]}
{8a/J
=15
16b/LK
8.b/J
16a/LK
8.a/J
=16
4g/}
!! Da Capo al Fine
==
*-
